static/assets/images/addons/logos/elasticsearch.svg

<svg width="16" height="16" viewBox="0 0 16 16" fill="none" xmlns="http://www.w3.org/2000/svg">
<path d="M8.18327 15.9863L7.28037 15.8606C6.43542 15.6975 5.61127 15.4407 4.82324 15.0948C4.82324 15.0948 4.82324 15.0948 4.82324 15.0377C5.74257 14.0461 6.45372 12.8803 6.91467 11.6091C6.92572 11.5586 6.95532 11.5141 6.99767 11.4845C7.04007 11.4548 7.09202 11.4422 7.14327 11.4491L12.7433 11.4148C13.893 11.3709 15.0139 11.7815 15.8633 12.5577L15.9547 12.6491C15.6427 13.043 15.2903 13.403 14.9033 13.7234C13.4894 14.888 11.7727 15.6254 9.95467 15.8491L9.24612 15.9863H8.18327Z" fill="#1971BD"/>
<path d="M0 7.3577C0 7.04915 0.08 6.7406 0.125714 6.44345C0.171429 6.1463 0.217143 6.0206 0.262857 5.81485C0.271114 5.77735 0.293581 5.7445 0.325543 5.7232C0.357506 5.70185 0.396479 5.69375 0.434285 5.7006H6.14855C6.17345 5.6957 6.1991 5.696 6.22385 5.70155C6.2486 5.7071 6.27195 5.71775 6.29235 5.7328C6.3128 5.74785 6.32985 5.76695 6.3425 5.78895C6.3551 5.81095 6.363 5.83535 6.3657 5.8606C6.71995 7.28265 6.71995 8.76995 6.3657 10.192C6.35965 10.2111 6.3495 10.2286 6.3359 10.2434C6.32235 10.2581 6.30575 10.2697 6.2872 10.2773C6.2687 10.285 6.24875 10.2884 6.22875 10.2875C6.20875 10.2866 6.18915 10.2813 6.17145 10.272H0.525715C0.486757 10.2768 0.447347 10.268 0.414066 10.2472C0.380785 10.2264 0.35565 10.1948 0.342857 10.1577C0.160656 9.6688 0.0453278 9.1575 0 8.6377V8.4206V7.3577Z" fill="#1971BD"/>
<path d="M16.0004 3.28916C15.3974 3.88409 14.6285 4.28253 13.7947 4.43201C13.4483 4.50019 13.0962 4.53463 12.7433 4.53487L7.12037 4.48915C7.00612 4.48915 6.97182 4.48916 6.93752 4.34059C6.56622 3.3482 6.05017 2.4162 5.40612 1.57487C5.22327 1.33487 5.01752 1.12915 4.82324 0.900585C6.69082 0.0199414 8.79582 -0.223306 10.815 0.208197C12.8342 0.6397 14.6559 1.7221 16.0004 3.28916Z" fill="#1971BD"/>
<path d="M7.40527 10.272C7.79542 8.77323 7.79542 7.19948 7.40527 5.70063H11.851C12.2058 5.68698 12.5595 5.74698 12.89 5.87678C13.2204 6.00663 13.5204 6.20343 13.771 6.45488C14.0343 6.72483 14.2245 7.05748 14.3234 7.42138C14.4224 7.78528 14.4268 8.16838 14.3365 8.53453C14.2461 8.90063 14.0638 9.23763 13.8069 9.51368C13.5499 9.78973 13.2268 9.99568 12.8681 10.112C12.5483 10.2244 12.2128 10.2861 11.8739 10.2949H7.40527V10.272Z" fill="#1971BD"/>
<path d="M3.89663 1.39197C4.73143 2.34952 5.43476 3.41415 5.98806 4.55768H0.902344C1.57548 3.23662 2.61505 2.13753 3.89663 1.39197Z" fill="#1971BD"/>
<path d="M3.79409 14.4891C2.54231 13.7463 1.50928 12.6857 0.799805 11.4148H5.89693C5.42818 12.5804 4.7105 13.6296 3.79409 14.4891Z" fill="#1971BD"/>
</svg>

<svg xmlns="http://www.w3.org/2000/svg" width="16" height="16" fill="#1971bd" xmlns:v="https://vecta.io/nano"><path d="M8.183 15.986l-.903-.126a11.57 11.57 0 0 1-2.457-.766v-.057c.919-.992 1.63-2.157 2.091-3.429a.21.21 0 0 1 .083-.125c.042-.03.094-.042.146-.035l5.6-.034a4.38 4.38 0 0 1 3.12 1.143l.091.091a7.19 7.19 0 0 1-1.051 1.074c-1.414 1.165-3.131 1.902-4.949 2.126l-.709.137H8.183zM0 7.358c0-.309.08-.617.126-.914s.091-.423.137-.629c.008-.037.031-.07.063-.092A.15.15 0 0 1 .435 5.7h5.714c.025-.005.051-.005.075.001s.048.016.069.031.038.034.05.056a.18.18 0 0 1 .023.072 8.96 8.96 0 0 1 0 4.331c-.006.019-.016.037-.03.051s-.03.026-.049.034a.13.13 0 0 1-.058.01c-.02-.001-.04-.006-.057-.015H.526c-.039.005-.078-.004-.112-.025s-.058-.052-.071-.089A5.79 5.79 0 0 1 0 8.637V8.42 7.357zm16-4.069a4.2 4.2 0 0 1-2.206 1.143 5.46 5.46 0 0 1-1.051.103L7.12 4.489c-.114 0-.149 0-.183-.149-.371-.992-.887-1.924-1.531-2.766-.183-.24-.389-.446-.583-.674A9.43 9.43 0 0 1 16 3.289zm-8.595 6.983c.39-1.499.39-3.073 0-4.571h4.446a2.57 2.57 0 0 1 1.92.754c.263.27.454.603.552.966a2.22 2.22 0 0 1-.516 2.092c-.257.276-.58.482-.939.598a3.27 3.27 0 0 1-.994.183H7.405v-.023zm-3.508-8.88a14.27 14.27 0 0 1 2.091 3.166H.902a7.72 7.72 0 0 1 2.994-3.166zm-.103 13.097A8.25 8.25 0 0 1 .8 11.415h5.097a8.63 8.63 0 0 1-2.103 3.074z"/></svg>
